pix/e/question.svg

<!DOCTYPE svg PUBLIC "-//W3C//DTD SVG 1.1//EN" "http://www.w3.org/Graphics/SVG/1.1/DTD/svg11.dtd" [
	<!ENTITY ns_flows "http://ns.adobe.com/Flows/1.0/">
]><svg xmlns="http://www.w3.org/2000/svg" width="16" height="16" viewBox="-3.6 -0.2 16 16" preserveAspectRatio="xMinYMid meet" overflow="visible"><path d="M1.1 1c.7-.7 1.8-1 3.2-1s2.6.4 3.4 1.1c.8.7 1.2 1.6 1.2 2.7 0 .5-.1 1-.2 1.4-.3.7-.9 1.3-1.7 1.9-.4.2-.6.4-.7.4-.1.1-.4.3-.7.5-.4.2-.7.5-.8.7-.2.3-.3.9-.3 1.8h-.7v-1c0-.6.3-1.5.8-2.5.6-1 .8-2.1.8-3.3 0-.9-.2-1.6-.5-2.2S4.2.8 3.4.8c-.5 0-.8.1-1 .3-.1.2-.2.4-.2.7V2l.2.2.2.2.3.6c.1.2.1.4.1.6 0 .4-.1.8-.4 1S2 5 1.6 5 .8 4.8.5 4.5C.2 4.3 0 3.9 0 3.3 0 2.5.4 1.7 1.1 1zm1.7 11.8c.4-.4.8-.6 1.4-.6.5 0 1 .2 1.4.6.4.4.6.8.6 1.4s-.2 1-.6 1.4c-.4.4-.8.6-1.4.6-.5 0-1-.2-1.4-.6-.4-.4-.6-.8-.6-1.4s.2-1 .6-1.4z" fill="#999"/></svg>

<?xml version="1.0" encoding="utf-8"?>
<!-- Generator: Adobe Illustrator 15.1.0, SVG Export Plug-In  -->
<!DOCTYPE svg PUBLIC "-//W3C//DTD SVG 1.1//EN" "http://www.w3.org/Graphics/SVG/1.1/DTD/svg11.dtd" [
	<!ENTITY ns_flows "http://ns.adobe.com/Flows/1.0/">
]>
<svg version="1.1"
	 xmlns="http://www.w3.org/2000/svg" xmlns:xlink="http://www.w3.org/1999/xlink" xmlns:a="http://ns.adobe.com/AdobeSVGViewerExtensions/3.0/"
	 x="0px" y="0px" width="16px" height="16px" viewBox="-3.6 -0.2 16 16"
	 style="overflow:visible;enable-background:new -3.6 -0.2 16 16;" xml:space="preserve" preserveAspectRatio="xMinYMid meet">
<defs>
</defs>
<path style="fill:#999999;" d="M1.1,1c0.7-0.7,1.8-1,3.2-1s2.6,0.4,3.4,1.1c0.8,0.7,1.2,1.6,1.2,2.7c0,0.5-0.1,1-0.2,1.4
	C8.4,5.9,7.8,6.5,7,7.1C6.6,7.3,6.4,7.5,6.3,7.5C6.2,7.6,5.9,7.8,5.6,8C5.2,8.2,4.9,8.5,4.8,8.7C4.6,9,4.5,9.6,4.5,10.5H3.8l0-1
	C3.8,8.9,4.1,8,4.6,7c0.6-1,0.8-2.1,0.8-3.3c0-0.9-0.2-1.6-0.5-2.2S4.2,0.8,3.4,0.8c-0.5,0-0.8,0.1-1,0.3C2.3,1.3,2.2,1.5,2.2,1.8
	c0,0.1,0,0.2,0,0.2s0.1,0.1,0.2,0.2l0.2,0.2C2.7,2.6,2.8,2.8,2.9,3C3,3.2,3,3.4,3,3.6c0,0.4-0.1,0.8-0.4,1s-0.6,0.4-1,0.4
	c-0.4,0-0.8-0.2-1.1-0.5C0.2,4.3,0,3.9,0,3.3C0,2.5,0.4,1.7,1.1,1z M2.8,12.8c0.4-0.4,0.8-0.6,1.4-0.6c0.5,0,1,0.2,1.4,0.6
	c0.4,0.4,0.6,0.8,0.6,1.4s-0.2,1-0.6,1.4c-0.4,0.4-0.8,0.6-1.4,0.6c-0.5,0-1-0.2-1.4-0.6c-0.4-0.4-0.6-0.8-0.6-1.4
	S2.4,13.2,2.8,12.8z"/>
</svg>
